X:1
T:Wonderful, Boundless Peace
T:Blanche Kerr Brock
T:Wonderful, Boundless Peace
T:Public Domain
T:Public Domain
T:Public Domain
C:Blanche Kerr Brock
Z:Public Domain
%%score 1 { 2 | ( 3 4 ) }
L:1/8
M:6/4
K:Ab
V:1 treble 
V:2 treble 
V:3 bass 
V:4 bass 
V:1
 c2 c2 c2 c2 c2 c2 | d4 d2 d6 | d2 d2 d2 d2 d2 f2 | f4 e2 c6 | =e2 e2 e2 e4 e2 | f4 f2 f6 | %6
 =d2 d2 d2 d4 d2 | z12 | z12 | z12 | z12 | z12 | z12 | z12 | z12 | z12 |] %16
V:2
 [CE]2 [CE]2 [CF]2 [CA]2 [CF]2 [CA]2 | [DA]4 [DG]2 [DG]6 | [DE]2 [DF]2 [DG]2 [DG]2 [DB]2 [Fd]2 | %3
w: |||
w: 1.~Je- sus came in- to my|heart one day,|Tak- ing my bur- dens and|
w: 2.~Now as I jour- ney a-|long my way,|Nev- er for- get- ting to|
w: 3.~When I am tempt- ed, when|sore- ly tried,|Al- ways I hast- en to|
 [Fd]4 [Ec]2 [CA]6 | [=Ec]2 [E=B]2 [Ec]2 [EG]4 [E_B]2 | [FB]4 [FA]2 [FA]6 | %6
w: |||
w: sins a- way,|Bring- ing a peace that|ev- er stays;|
w: watch and pray,|There is a bless- ing|for each day;|
w: Je- sus’ side;|There is a peace He|doth pro- vide;|
 [=Dc]2 [DB]2 [DA]2 (F2 G2) [DA]2 | [EB]12 |"^Refrain" [Ec]6 [Ac]6 | [Ad]2 [Gd]2 [Fd]2 [Gd]6 | %10
w: ||||
w: Won- der- ful, bound- * less||||
w: Won- der- ful bound- * less||||
w: Won- der- ful, bound- * less||||
 [Gd]6 [ce]6 | [Bd]2 [Ac]2 [Fd]2 [Ec]6 | [ce]2 [=B=d]2 [ce]2 [_df]4 [ce]2 | %13
w: |||
w: |||
w: |||
w: |||
 [c=d]4 ([Bd]2 [Ad-]4) [Fd]2 | [Ee]2 [Ac]2 [Gd]2 [ce]4 [Bd]2 | [Ac]12 |] %16
w: |||
w: |||
w: |||
w: |||
V:3
 x12 | x12 | x12 | x12 | x12 | x12 | x6[I:staff -1] =D4[I:staff +1] x2 | G,6- G,6 | x12 | x12 | %10
w: |||||||Peace, *|||
w: ||||||peace.||||
w: ||||||peace.||||
w: ||||||peace.||||
 x12 | x12 | x12 | x12 | x12 | x12 |] %16
w: ||||||
w: ||||||
w: ||||||
w: ||||||
V:4
 [A,,A,]2 [A,,A,]2 [A,,A,]2 [A,,E,]2 [A,,E,]2 [A,,E,]2 | [B,,E,]4 [E,B,]2 [E,B,]6 | %2
w: ~ ~ ~ ~ ~ ~|~ ~ ~|
 [E,G,]2 [E,G,]2 [F,B,]2 [F,B,]2 [E,G,]2 [E,G,]2 | [A,,A,]4 [A,,A,]2 [A,,A,]6 | %4
w: ~ ~ ~ ~ ~ ~|~ ~ ~|
 [C,G,]2 [C,G,]2 [C,G,]2 [C,C]4 [C,C]2 | [F,C]4 [F,C]2 [F,C]6 | %6
w: ~ ~ ~ ~ ~|~ ~ ~|
 [B,,A,]2 [B,,G,]2 [B,,F,]2 [B,,B,]4 [B,,B,]2 | (E,2 F,2 E,2 D,2 C,2 B,,2) | %8
w: ~ ~ ~ ~ ~|~ * * * * *|
 (A,,2 [E,A,C]2 [E,A,C]2) (C,2 [E,A,C]2 [E,A,C]2) | %9
w: peace, * * won- * *|
 B,,2 [E,G,D]2 [E,G,D]2 (E,,2 [E,G,B,]2 [E,G,B,]2) | %10
w: der- ful peace, Peace, * *|
 (B,,2 [E,G,E]2 [E,G,E]2) (E,,2 [E,G,E]2 [E,G,E]2) | %11
w: peace * * nev- * *|
 A,,2 [F,A,C]2 [F,A,D]2 (A,,2 [E,A,C]2 [E,A,C]2) | A,,2 [A,CE]2 [A,CE]2 (A,,2 [A,CE]2) [A,CE]2 | %13
w: er shall cease; Flow- * *|ing like riv- ers * through|
 (B,,2 [F,B,=D]2) [F,B,D]2 (B,,2 [F,B,D]2 [F,B,D]2) | %14
w: my * soul, Un- * *|
 [E,A,C]2 [E,A,C]2 [E,B,D]2 E,,2 [E,G,E]2 [E,G,E]2 | A,,2 [A,CE]2 [E,A,C]2 [A,,E,A,]6 |] %16
w: der di- vine con- * trol.||

